static/img/kroki/0c086dce48d34b3827f9f0e2ec35f379.svg

<?xml version="1.0" encoding="us-ascii" standalone="no"?><svg xmlns="http://www.w3.org/2000/svg" xmlns:xlink="http://www.w3.org/1999/xlink" contentStyleType="text/css" height="352px" preserveAspectRatio="none" style="width:376px;height:352px;" version="1.1" viewBox="0 0 376 352" width="376px" zoomAndPan="magnify"><defs/><g><!--class azure_network_bastion_host--><g id="elem_azure_network_bastion_host"><rect codeLine="23" fill="#3D176E" height="39.7891" id="azure_network_bastion_host" rx="2.5" ry="2.5" style="stroke:#000D19;stroke-width:0.5;" width="282" x="26.5" y="206.58"/><ellipse cx="41.5" cy="226.4745" fill="#ADD1B2" rx="11" ry="11" style="stroke:#181818;stroke-width:1.0;"/><path d="M44.4688,232.1152 Q43.8906,232.412 43.25,232.5527 Q42.6094,232.7089 41.9063,232.7089 Q39.4063,232.7089 38.0781,231.0683 Q36.7656,229.412 36.7656,226.287 Q36.7656,223.162 38.0781,221.5058 Q39.4063,219.8495 41.9063,219.8495 Q42.6094,219.8495 43.25,220.0058 Q43.9063,220.162 44.4688,220.4589 L44.4688,223.1777 Q43.8438,222.5995 43.25,222.3339 Q42.6563,222.0527 42.0313,222.0527 Q40.6875,222.0527 40,223.1308 Q39.3125,224.1933 39.3125,226.287 Q39.3125,228.3808 40,229.4589 Q40.6875,230.5214 42.0313,230.5214 Q42.6563,230.5214 43.25,230.2558 Q43.8438,229.9745 44.4688,229.3964 L44.4688,232.1152 Z " fill="#000000"/><text fill="#D9B8FF" font-family="Helvetica" font-size="17" lengthAdjust="spacing" textLength="240" x="60.5" y="232.3598">azure_network_bastion_host</text></g><!--class azure_network_public_ip_address--><g id="elem_azure_network_public_ip_address"><rect codeLine="26" fill="#3D176E" height="39.7891" id="azure_network_public_ip_address" rx="2.5" ry="2.5" style="stroke:#000D19;stroke-width:0.5;" width="321" x="7" y="306.37"/><ellipse cx="22" cy="326.2645" fill="#ADD1B2" rx="11" ry="11" style="stroke:#181818;stroke-width:1.0;"/><path d="M24.9688,331.9052 Q24.3906,332.202 23.75,332.3427 Q23.1094,332.4989 22.4063,332.4989 Q19.9063,332.4989 18.5781,330.8583 Q17.2656,329.202 17.2656,326.077 Q17.2656,322.952 18.5781,321.2958 Q19.9063,319.6395 22.4063,319.6395 Q23.1094,319.6395 23.75,319.7958 Q24.4063,319.952 24.9688,320.2489 L24.9688,322.9677 Q24.3438,322.3895 23.75,322.1239 Q23.1563,321.8427 22.5313,321.8427 Q21.1875,321.8427 20.5,322.9208 Q19.8125,323.9833 19.8125,326.077 Q19.8125,328.1708 20.5,329.2489 Q21.1875,330.3114 22.5313,330.3114 Q23.1563,330.3114 23.75,330.0458 Q24.3438,329.7645 24.9688,329.1864 L24.9688,331.9052 Z " fill="#000000"/><text fill="#D9B8FF" font-family="Helvetica" font-size="17" lengthAdjust="spacing" textLength="279" x="41" y="332.1498">azure_network_public_ip_address</text></g><!--class azure_network_subnet--><g id="elem_azure_network_subnet"><rect codeLine="29" fill="#3D176E" height="39.7891" id="azure_network_subnet" rx="2.5" ry="2.5" style="stroke:#000D19;stroke-width:0.5;" width="233" x="136" y="106.79"/><ellipse cx="151" cy="126.6845" fill="#ADD1B2" rx="11" ry="11" style="stroke:#181818;stroke-width:1.0;"/><path d="M153.9688,132.3252 Q153.3906,132.622 152.75,132.7627 Q152.1094,132.9189 151.4063,132.9189 Q148.9063,132.9189 147.5781,131.2783 Q146.2656,129.622 146.2656,126.497 Q146.2656,123.372 147.5781,121.7158 Q148.9063,120.0595 151.4063,120.0595 Q152.1094,120.0595 152.75,120.2158 Q153.4063,120.372 153.9688,120.6689 L153.9688,123.3877 Q153.3438,122.8095 152.75,122.5439 Q152.1563,122.2627 151.5313,122.2627 Q150.1875,122.2627 149.5,123.3408 Q148.8125,124.4033 148.8125,126.497 Q148.8125,128.5908 149.5,129.6689 Q150.1875,130.7314 151.5313,130.7314 Q152.1563,130.7314 152.75,130.4658 Q153.3438,130.1845 153.9688,129.6064 L153.9688,132.3252 Z " fill="#000000"/><text fill="#D9B8FF" font-family="Helvetica" font-size="17" lengthAdjust="spacing" textLength="191" x="170" y="132.5698">azure_network_subnet</text></g><!--class azure_network_virtual_network--><g id="elem_azure_network_virtual_network"><rect codeLine="32" fill="#3D176E" height="39.7891" id="azure_network_virtual_network" rx="2.5" ry="2.5" style="stroke:#000D19;stroke-width:0.5;" width="310" x="12.5" y="7"/><ellipse cx="27.5" cy="26.8945" fill="#ADD1B2" rx="11" ry="11" style="stroke:#181818;stroke-width:1.0;"/><path d="M30.4688,32.5352 Q29.8906,32.832 29.25,32.9727 Q28.6094,33.1289 27.9063,33.1289 Q25.4063,33.1289 24.0781,31.4883 Q22.7656,29.832 22.7656,26.707 Q22.7656,23.582 24.0781,21.9258 Q25.4063,20.2695 27.9063,20.2695 Q28.6094,20.2695 29.25,20.4258 Q29.9063,20.582 30.4688,20.8789 L30.4688,23.5977 Q29.8438,23.0195 29.25,22.7539 Q28.6563,22.4727 28.0313,22.4727 Q26.6875,22.4727 26,23.5508 Q25.3125,24.6133 25.3125,26.707 Q25.3125,28.8008 26,29.8789 Q26.6875,30.9414 28.0313,30.9414 Q28.6563,30.9414 29.25,30.6758 Q29.8438,30.3945 30.4688,29.8164 L30.4688,32.5352 Z " fill="#000000"/><text fill="#D9B8FF" font-family="Helvetica" font-size="17" lengthAdjust="spacing" textLength="268" x="46.5" y="32.7798">azure_network_virtual_network</text></g><!--link azure_network_bastion_host to azure_network_public_ip_address--><g id="link_azure_network_bastion_host_azure_network_public_ip_address"><path codeLine="35" d="M167.5,246.8 C167.5,263.94 167.5,282.85 167.5,299.99 " fill="none" id="azure_network_bastion_host-to-azure_network_public_ip_address" style="stroke:#1A83AF;stroke-width:2.0;"/><polygon fill="#1A83AF" points="167.5,305.99,171.5,296.99,167.5,300.99,163.5,296.99,167.5,305.99" style="stroke:#1A83AF;stroke-width:2.0;"/></g><!--link azure_network_subnet to azure_network_bastion_host--><g id="link_azure_network_subnet_azure_network_bastion_host"><path codeLine="36" d="M235.71,147.01 C220.81,164.15 203.0849,184.5305 188.1949,201.6705 " fill="none" id="azure_network_subnet-to-azure_network_bastion_host" style="stroke:#1A83AF;stroke-width:2.0;"/><polygon fill="#1A83AF" points="184.26,206.2,193.182,202.029,187.5391,202.4254,187.1427,196.7825,184.26,206.2" style="stroke:#1A83AF;stroke-width:2.0;"/></g><!--link azure_network_virtual_network to azure_network_bastion_host--><g id="link_azure_network_virtual_network_azure_network_bastion_host"><path codeLine="37" d="M151.23,47.17 C139.58,62.29 124.87,84.47 118.5,106.79 C113.65,123.8 113.65,129.58 118.5,146.58 C124.87,168.91 135.9195,186.326 147.5695,201.456 " fill="none" id="azure_network_virtual_network-to-azure_network_bastion_host" style="stroke:#1A83AF;stroke-width:2.0;"/><polygon fill="#1A83AF" points="151.23,206.21,148.9085,196.6387,148.1795,202.2483,142.5699,201.5194,151.23,206.21" style="stroke:#1A83AF;stroke-width:2.0;"/></g><!--link azure_network_virtual_network to azure_network_subnet--><g id="link_azure_network_virtual_network_azure_network_subnet"><path codeLine="38" d="M184.29,47.22 C199.19,64.36 216.9138,84.7516 231.8038,101.8816 " fill="none" id="azure_network_virtual_network-to-azure_network_subnet" style="stroke:#1A83AF;stroke-width:2.0;"/><polygon fill="#1A83AF" points="235.74,106.41,232.8546,96.9933,232.4598,102.6364,226.8168,102.2416,235.74,106.41" style="stroke:#1A83AF;stroke-width:2.0;"/></g><!--SRC=[jP9HIyCm4CVVyoa2Unwi3jts8jJ1q9SXpZUHaZQNDRHDokMwiOdVtTKwYUtQFVcMvF_ZxdT7KYs1Gr7IWHTGn82EkKoRKg0eU8XezqkRM-GZfOIQpjhXoXgw2gn50VmHyXsGJaIRU4rraXbmZjzuqOD8iYtQoiYcFA4mxXI18OzQviAva0XrN15uCd8HpvLga-sYewaCPdVGmInAm1zaCfd8OD56hhOQdFkNsEWZyC1VsjeIT3GxBRwfGSkQy2GxWvxpNiTd8QKsMtxhlRqqJcW0_xnlKY7jlgQLo9tVnX4WM3gKiEnC1OkvLBEBy5CVp99wTLmSAuJ80EqjPb4i76bhejGwuX-CVLwaoYhETHBfCZfDXlL_wqLT5P-E_VbE8rKYFzyRSC1f_3OAmlaqNBsFxwzPiOig0nNyJcpOyz-hDBRi2m00]--></g></svg>

<svg xmlns="http://www.w3.org/2000/svg" width="376" height="352" viewBox="0 0 376 352"><rect width="282" height="39.789" x="26.5" y="206.58" fill="#3D176E" rx="2.5" ry="2.5" style="stroke:#000d19;stroke-width:.5"/><circle cx="41.5" cy="226.475" r="11" fill="#ADD1B2" style="stroke:#181818;stroke-width:1"/><path d="M44.469 232.115q-.578.297-1.219.438-.64.156-1.344.156-2.5 0-3.828-1.64-1.312-1.657-1.312-4.782t1.312-4.781q1.328-1.656 3.828-1.656.703 0 1.344.156.656.156 1.219.453v2.719q-.625-.578-1.219-.844-.594-.281-1.219-.281-1.343 0-2.031 1.078-.687 1.062-.687 3.156t.687 3.172q.688 1.062 2.031 1.062.625 0 1.219-.265.594-.281 1.219-.86z"/><text x="60.5" y="232.36" fill="#D9B8FF" font-family="Helvetica" font-size="17" textLength="240">azure_network_bastion_host</text><rect width="321" height="39.789" x="7" y="306.37" fill="#3D176E" rx="2.5" ry="2.5" style="stroke:#000d19;stroke-width:.5"/><circle cx="22" cy="326.264" r="11" fill="#ADD1B2" style="stroke:#181818;stroke-width:1"/><path d="M24.969 331.905q-.578.297-1.219.438-.64.156-1.344.156-2.5 0-3.828-1.64-1.312-1.657-1.312-4.782t1.312-4.781q1.328-1.656 3.828-1.656.703 0 1.344.156.656.156 1.219.453v2.719q-.625-.579-1.219-.844-.594-.281-1.219-.281-1.343 0-2.031 1.078-.687 1.062-.687 3.156t.687 3.172q.688 1.062 2.031 1.062.625 0 1.219-.265.594-.281 1.219-.86z"/><text x="41" y="332.15" fill="#D9B8FF" font-family="Helvetica" font-size="17" textLength="279">azure_network_public_ip_address</text><rect width="233" height="39.789" x="136" y="106.79" fill="#3D176E" rx="2.5" ry="2.5" style="stroke:#000d19;stroke-width:.5"/><circle cx="151" cy="126.684" r="11" fill="#ADD1B2" style="stroke:#181818;stroke-width:1"/><path d="M153.969 132.325q-.578.297-1.219.438-.64.156-1.344.156-2.5 0-3.828-1.64-1.312-1.657-1.312-4.782t1.312-4.781q1.328-1.656 3.828-1.656.703 0 1.344.156.656.156 1.219.453v2.719q-.625-.579-1.219-.844-.594-.281-1.219-.281-1.344 0-2.031 1.078-.687 1.062-.687 3.156t.687 3.172q.688 1.062 2.031 1.062.625 0 1.219-.265.594-.281 1.219-.86z"/><text x="170" y="132.57" fill="#D9B8FF" font-family="Helvetica" font-size="17" textLength="191">azure_network_subnet</text><rect width="310" height="39.789" x="12.5" y="7" fill="#3D176E" rx="2.5" ry="2.5" style="stroke:#000d19;stroke-width:.5"/><circle cx="27.5" cy="26.895" r="11" fill="#ADD1B2" style="stroke:#181818;stroke-width:1"/><path d="M30.469 32.535q-.578.297-1.219.438-.64.156-1.344.156-2.5 0-3.828-1.64-1.312-1.657-1.312-4.782t1.312-4.781q1.328-1.656 3.828-1.656.703 0 1.344.156.656.156 1.219.453v2.719q-.625-.578-1.219-.844-.594-.281-1.219-.281-1.343 0-2.031 1.078-.687 1.062-.687 3.156T26 29.879q.688 1.062 2.031 1.062.625 0 1.219-.265.594-.281 1.219-.86z"/><text x="46.5" y="32.78" fill="#D9B8FF" font-family="Helvetica" font-size="17" textLength="268">azure_network_virtual_network</text><path fill="none" d="M167.5 246.8v53.19" style="stroke:#1a83af;stroke-width:2"/><path fill="#1A83AF" d="m167.5 305.99 4-9-4 4-4-4z" style="stroke:#1a83af;stroke-width:2"/><path fill="none" d="M235.71 147.01c-14.9 17.14-32.625 37.52-47.515 54.66" style="stroke:#1a83af;stroke-width:2"/><path fill="#1A83AF" d="m184.26 206.2 8.922-4.171-5.643.396-.396-5.643z" style="stroke:#1a83af;stroke-width:2"/><path fill="none" d="M151.23 47.17c-11.65 15.12-26.36 37.3-32.73 59.62-4.85 17.01-4.85 22.79 0 39.79 6.37 22.33 17.42 39.746 29.07 54.876" style="stroke:#1a83af;stroke-width:2"/><path fill="#1A83AF" d="m151.23 206.21-2.321-9.571-.73 5.61-5.61-.73z" style="stroke:#1a83af;stroke-width:2"/><path fill="none" d="M184.29 47.22c14.9 17.14 32.624 37.532 47.514 54.662" style="stroke:#1a83af;stroke-width:2"/><path fill="#1A83AF" d="m235.74 106.41-2.885-9.417-.395 5.643-5.643-.394z" style="stroke:#1a83af;stroke-width:2"/></svg>
